assets/imgs/Booking_3-2.svg

<svg width="58" height="58" viewBox="0 0 58 58" fill="none" xmlns="http://www.w3.org/2000/svg">
<rect x="0.982422" y="1.06885" width="55.9734" height="55.9734" rx="27.9867" stroke="#D1D5DB" stroke-width="0.79962"/>
<path fill-rule="evenodd" clip-rule="evenodd" d="M19.6416 15.7305H38.2966C39.7623 15.7305 40.9616 16.9297 40.9616 18.3955V38.6495C40.9616 40.515 39.0961 41.8475 37.3638 41.1812L35.2318 40.3817C34.5656 40.1152 33.8993 40.1152 33.2331 40.515L30.0351 41.9807C29.3688 42.2472 28.5693 42.2472 27.9031 41.9807L24.7051 40.515C24.0388 40.2485 23.3726 40.2485 22.7063 40.3817L20.5743 41.048C18.8421 41.7142 16.9766 40.3817 16.9766 38.6495V18.3955C16.9766 16.9297 18.1758 15.7305 19.6416 15.7305ZM35.6316 23.459C36.1646 23.459 36.6976 23.0592 36.6976 22.393C36.6976 21.7267 36.1646 21.327 35.6316 21.327H22.3066C21.7736 21.327 21.2406 21.86 21.2406 22.393C21.2406 22.926 21.7736 23.459 22.3066 23.459H35.6316ZM36.6976 27.723C36.6976 28.256 36.2978 28.789 35.6316 28.789H22.3066C21.7736 28.789 21.2406 28.3892 21.2406 27.723C21.2406 27.0567 21.6403 26.657 22.3066 26.657H35.6316C36.1646 26.657 36.6976 27.19 36.6976 27.723ZM28.9691 34.119C29.5021 34.119 30.0351 33.7192 30.0351 33.053C30.0351 32.3867 29.6353 31.987 28.9691 31.987H22.3066C21.7736 31.987 21.2406 32.3867 21.2406 33.053C21.2406 33.7192 21.6403 34.119 22.3066 34.119H28.9691Z" fill="#C891C3"/>
</svg>

<svg xmlns="http://www.w3.org/2000/svg" width="58" height="58" fill="none"><rect width="55.973" height="55.973" x=".982" y="1.069" stroke="#D1D5DB" stroke-width=".8" rx="27.987"/><path fill="#C891C3" fill-rule="evenodd" d="M19.642 15.73h18.655c1.465 0 2.665 1.2 2.665 2.665V38.65c0 1.865-1.866 3.197-3.598 2.531l-2.132-.8c-.666-.266-1.333-.266-1.999.134l-3.198 1.466a2.94 2.94 0 0 1-2.132 0l-3.198-1.466c-.666-.267-1.332-.267-1.999-.133l-2.132.666c-1.732.666-3.597-.666-3.597-2.398V18.396c0-1.466 1.199-2.666 2.665-2.666m15.99 7.729c.533 0 1.066-.4 1.066-1.066s-.533-1.066-1.066-1.066H22.307c-.533 0-1.066.533-1.066 1.066s.533 1.066 1.066 1.066zm1.066 4.264c0 .533-.4 1.066-1.066 1.066H22.307c-.533 0-1.066-.4-1.066-1.066s.4-1.066 1.066-1.066h13.325c.533 0 1.066.533 1.066 1.066m-7.729 6.396c.533 0 1.066-.4 1.066-1.066s-.4-1.066-1.066-1.066h-6.662c-.533 0-1.066.4-1.066 1.066s.4 1.066 1.066 1.066z" clip-rule="evenodd"/></svg>
